!!!COM: Johannes Brahms
!!!CNT: Deutscher
!!!TXO: Deutsche
!!!OTL: Liebesklage des Ma2dchens
!!!OPS: Op. 48
!!!ONM: No. 3
!!!LYR: Aus des Knaben Wunderhorn
!!!ONB: Original key: B Major
!!!ENC: Ayako Kataoka
!!!EED: Leigh VanHandel
!!!YOR: C.F. Peters, Brahms Lieder fu2r eine Singstimme mit Klavierbegleitung, Band III, ausgabe fu2r tiefere Stimme
!!!ODT: 1860/
!!NB: Vocal melody and text only encoded.
**kern	**silbe
*clefG2	*
*k[f#c#g#]	*
*M6/4	*
*MM[adagio]	*
!! tempo indication: langsam
=1-	=1-
2.r	.
4r	.
4r	.
{4a	{Wer
=2	=2
(4dd	se-
4cc#)	|
4b	-hen
4a	will
4r	.
4r	.
=3	=3
(4dd	zwe-
4cc#)	-en
4b	le-
(4a	-ben
4g#)	-di-
4f#	-ge
=4	=4
2b	Brun-
4e}	-nen,}
4r	.
4r	.
{4a	{der
=5	=5
(4ddn	soll
4cc#)	|
4b	mein
(4ee	zwei
4dd)	|
4cc#	be-
=6	=6
(4b	-tru2b
4f#)	|
4a	-te
(4g#	Au-
4a)	|
4b	-gen
=7	=7
[2.b	sehn,
4b]}	|}
4r	.
4r	.
=8	=8
2.r	.
{4dd	{die
4cc#	mir
4b	vor
=9	=9
4a	Wei-
4g#	-nen
4r	.
8a	schier
8a	sind
4gn	aus-
4f#	-ge-
=10	=10
2.d#	run-
2e}	-nen.}
4r	.
*-	*-
